polaris-icons/icons/Store.svg

<svg width="20" height="20" viewBox="0 0 20 20" fill="none" xmlns="http://www.w3.org/2000/svg">
<path fill-rule="evenodd" clip-rule="evenodd" d="M13.257 3H6.74302C6.35944 3 5.9971 3.17611 5.76012 3.47772L3.37394 6.51468C3.13169 6.823 3 7.20375 3 7.59586V8.25C3 9.31867 3.60958 10.245 4.5 10.7001V15.25C4.5 16.2165 5.2835 17 6.25 17H13.75C14.7165 17 15.5 16.2165 15.5 15.25V10.7001C16.3904 10.245 17 9.31867 17 8.25V7.76879C17 7.26465 16.8307 6.77511 16.5192 6.3787L14.2399 3.47772C14.0029 3.17611 13.6406 3 13.257 3ZM13 15.5H13.75C13.8881 15.5 14 15.3881 14 15.25V11C13.212 11 12.5014 10.6686 12 10.1375C11.4986 10.6686 10.788 11 10 11C9.21199 11 8.50138 10.6686 8 10.1375C7.49862 10.6686 6.78801 11 6 11V15.25C6 15.3881 6.11193 15.5 6.25 15.5H10V13C10 12.4477 10.4477 12 11 12H12C12.5523 12 13 12.4477 13 13V15.5ZM6 9.5H5.75C5.05964 9.5 4.5 8.94036 4.5 8.25V7.59586C4.5 7.53985 4.51881 7.48545 4.55342 7.44141L6.86453 4.5H13.1355L15.3397 7.30543C15.4436 7.43757 15.5 7.60075 15.5 7.76879V8.25C15.5 8.94036 14.9404 9.5 14.25 9.5H14C13.3096 9.5 12.75 8.94036 12.75 8.25V7.75C12.75 7.33579 12.4142 7 12 7C11.5858 7 11.25 7.33579 11.25 7.75V8.25C11.25 8.94036 10.6904 9.5 10 9.5C9.30964 9.5 8.75 8.94036 8.75 8.25V7.75C8.75 7.33579 8.41421 7 8 7C7.58579 7 7.25 7.33579 7.25 7.75V8.25C7.25 8.94036 6.69036 9.5 6 9.5Z" fill="#4A4A4A"/>
</svg>

<svg viewBox="0 0 20 20" xmlns="http://www.w3.org/2000/svg"><path fill-rule="evenodd" d="M13.257 3h-6.514a1.25 1.25 0 0 0-.983.478l-2.386 3.037a1.75 1.75 0 0 0-.374 1.08v.655a2.75 2.75 0 0 0 1.5 2.45v4.55c0 .966.784 1.75 1.75 1.75h7.5a1.75 1.75 0 0 0 1.75-1.75v-4.55a2.75 2.75 0 0 0 1.5-2.45v-.481c0-.504-.17-.994-.48-1.39l-2.28-2.901a1.25 1.25 0 0 0-.983-.478Zm-.257 12.5h.75a.25.25 0 0 0 .25-.25v-4.25a2.742 2.742 0 0 1-2-.863 2.742 2.742 0 0 1-2 .863 2.742 2.742 0 0 1-2-.863 2.742 2.742 0 0 1-2 .863v4.25c0 .138.112.25.25.25h3.75v-2.5a1 1 0 0 1 1-1h1a1 1 0 0 1 1 1v2.5Zm-7-6h-.25c-.69 0-1.25-.56-1.25-1.25v-.654a.25.25 0 0 1 .053-.155l2.312-2.941h6.27l2.205 2.805a.75.75 0 0 1 .16.464v.481c0 .69-.56 1.25-1.25 1.25h-.25c-.69 0-1.25-.56-1.25-1.25v-.5a.75.75 0 0 0-1.5 0v.5a1.25 1.25 0 1 1-2.5 0v-.5a.75.75 0 0 0-1.5 0v.5c0 .69-.56 1.25-1.25 1.25Z" fill="#5C5F62"/></svg>
